hosted/assets/icon/widgets/dark-mode/kpi.svg

<svg width="50" height="50" viewBox="0 0 50 50" fill="none" xmlns="http://www.w3.org/2000/svg">
<path d="M47 31.5H3V45L5.5 47H42.5H45.5L47 44V31.5Z" fill="#3B9281"/>
<path d="M19.4 42.2C19.592 42.2 19.752 42.264 19.88 42.392C20.008 42.52 20.072 42.68 20.072 42.872C20.072 43.056 20.008 43.212 19.88 43.34C19.752 43.46 19.592 43.52 19.4 43.52H15.32C15.112 43.52 14.948 43.456 14.828 43.328C14.708 43.2 14.648 43.036 14.648 42.836C14.648 42.636 14.72 42.46 14.864 42.308L17.48 39.512C17.768 39.2 18 38.884 18.176 38.564C18.352 38.236 18.44 37.932 18.44 37.652C18.44 37.404 18.38 37.18 18.26 36.98C18.14 36.78 17.984 36.62 17.792 36.5C17.6 36.38 17.392 36.32 17.168 36.32C16.936 36.32 16.7 36.4 16.46 36.56C16.22 36.712 16.008 36.916 15.824 37.172C15.728 37.3 15.632 37.38 15.536 37.412C15.44 37.444 15.352 37.46 15.272 37.46C15.096 37.46 14.932 37.396 14.78 37.268C14.636 37.132 14.564 36.976 14.564 36.8C14.564 36.664 14.608 36.532 14.696 36.404C14.792 36.276 14.908 36.144 15.044 36.008C15.348 35.704 15.7 35.46 16.1 35.276C16.5 35.092 16.884 35 17.252 35C17.796 35 18.264 35.112 18.656 35.336C19.048 35.56 19.352 35.868 19.568 36.26C19.784 36.652 19.892 37.096 19.892 37.592C19.892 37.928 19.828 38.272 19.7 38.624C19.58 38.968 19.412 39.304 19.196 39.632C18.98 39.96 18.732 40.276 18.452 40.58L16.832 42.308L16.7 42.2H19.4Z" fill="white"/>
<path d="M24.9216 43.52C24.7216 43.52 24.5536 43.452 24.4176 43.316C24.2816 43.172 24.2136 42.996 24.2136 42.788V37.148L24.4656 37.208L22.1496 40.076L22.0896 39.92H26.1576C26.3496 39.92 26.5096 39.984 26.6376 40.112C26.7656 40.24 26.8296 40.4 26.8296 40.592C26.8296 40.776 26.7656 40.932 26.6376 41.06C26.5096 41.18 26.3496 41.24 26.1576 41.24H21.0936C20.9256 41.24 20.7616 41.172 20.6016 41.036C20.4496 40.9 20.3736 40.732 20.3736 40.532C20.3736 40.356 20.4336 40.196 20.5536 40.052L24.3456 35.408C24.4096 35.32 24.4936 35.252 24.5976 35.204C24.7016 35.148 24.8176 35.12 24.9456 35.12C25.1536 35.12 25.3216 35.192 25.4496 35.336C25.5856 35.472 25.6536 35.644 25.6536 35.852V42.788C25.6536 42.996 25.5816 43.172 25.4376 43.316C25.3016 43.452 25.1296 43.52 24.9216 43.52Z" fill="white"/>
<path d="M28.9777 39.68C28.5937 39.68 28.2537 39.576 27.9577 39.368C27.6617 39.16 27.4297 38.88 27.2617 38.528C27.0937 38.176 27.0097 37.784 27.0097 37.352C27.0097 36.912 27.0937 36.516 27.2617 36.164C27.4297 35.812 27.6617 35.532 27.9577 35.324C28.2537 35.116 28.5937 35.012 28.9777 35.012C29.3697 35.012 29.7097 35.116 29.9977 35.324C30.2937 35.532 30.5217 35.812 30.6817 36.164C30.8497 36.516 30.9337 36.912 30.9337 37.352C30.9337 37.784 30.8457 38.176 30.6697 38.528C30.4937 38.88 30.2577 39.16 29.9617 39.368C29.6737 39.576 29.3457 39.68 28.9777 39.68ZM28.9777 38.612C29.2177 38.612 29.4017 38.492 29.5297 38.252C29.6657 38.012 29.7337 37.712 29.7337 37.352C29.7337 36.992 29.6697 36.692 29.5417 36.452C29.4137 36.212 29.2257 36.092 28.9777 36.092C28.7377 36.092 28.5497 36.212 28.4137 36.452C28.2777 36.692 28.2097 36.992 28.2097 37.352C28.2097 37.712 28.2737 38.012 28.4017 38.252C28.5377 38.492 28.7297 38.612 28.9777 38.612ZM34.1257 43.64C33.7577 43.64 33.4257 43.536 33.1297 43.328C32.8337 43.12 32.5977 42.84 32.4217 42.488C32.2457 42.136 32.1577 41.744 32.1577 41.312C32.1577 40.872 32.2417 40.476 32.4097 40.124C32.5777 39.772 32.8097 39.492 33.1057 39.284C33.4017 39.076 33.7417 38.972 34.1257 38.972C34.5177 38.972 34.8577 39.076 35.1457 39.284C35.4417 39.492 35.6697 39.772 35.8297 40.124C35.9977 40.476 36.0817 40.872 36.0817 41.312C36.0817 41.744 35.9937 42.136 35.8177 42.488C35.6417 42.84 35.4057 43.12 35.1097 43.328C34.8217 43.536 34.4937 43.64 34.1257 43.64ZM34.1257 42.572C34.3657 42.572 34.5497 42.452 34.6777 42.212C34.8137 41.972 34.8817 41.672 34.8817 41.312C34.8817 40.952 34.8177 40.652 34.6897 40.412C34.5617 40.172 34.3737 40.052 34.1257 40.052C33.8857 40.052 33.6977 40.172 33.5617 40.412C33.4257 40.652 33.3577 40.952 33.3577 41.312C33.3577 41.672 33.4217 41.972 33.5497 42.212C33.6857 42.452 33.8777 42.572 34.1257 42.572ZM29.1217 43.544C28.9937 43.544 28.8577 43.492 28.7137 43.388C28.5697 43.276 28.4977 43.132 28.4977 42.956C28.4977 42.852 28.5377 42.732 28.6177 42.596L33.3937 35.384C33.5377 35.192 33.7017 35.096 33.8857 35.096C34.0217 35.096 34.1577 35.148 34.2937 35.252C34.4377 35.356 34.5097 35.5 34.5097 35.684C34.5097 35.788 34.4697 35.908 34.3897 36.044L29.6137 43.256C29.4697 43.448 29.3057 43.544 29.1217 43.544Z" fill="white"/>
<path fill-rule="evenodd" clip-rule="evenodd" d="M46.5 32.4H3.5V30.6H46.5V32.4Z" fill="white"/>
<path fill-rule="evenodd" clip-rule="evenodd" d="M43.6391 9.36662C43.9889 9.71974 43.9862 10.2896 43.6331 10.6394L31.7649 22.3962C31.4494 22.7087 30.9531 22.7444 30.5961 22.4802L24.1448 17.7054L18.3609 24.3735C18.2131 24.5438 18.0069 24.6525 17.7828 24.678L7.10151 25.8942C6.60765 25.9505 6.1617 25.5957 6.10547 25.1018C6.04924 24.608 6.40401 24.162 6.89787 24.1058L17.2309 22.9292L23.3308 15.8968C23.6388 15.5417 24.1682 15.4834 24.5461 15.7631L31.0465 20.5742L42.3663 9.36062C42.7194 9.01081 43.2893 9.01349 43.6391 9.36662Z" fill="white"/>
<path fill-rule="evenodd" clip-rule="evenodd" d="M44 3.8H6C4.78497 3.8 3.8 4.78497 3.8 6V44C3.8 45.215 4.78497 46.2 6 46.2H44C45.215 46.2 46.2 45.215 46.2 44V6C46.2 4.78497 45.215 3.8 44 3.8ZM6 2C3.79086 2 2 3.79086 2 6V44C2 46.2091 3.79086 48 6 48H44C46.2091 48 48 46.2091 48 44V6C48 3.79086 46.2091 2 44 2H6Z" fill="white"/>
</svg>

<svg width="50" height="50" fill="none" xmlns="http://www.w3.org/2000/svg"><path d="M47 31.5H3V45l2.5 2h40l1.5-3V31.5z" fill="#3B9281"/><path d="M19.4 42.2c.192 0 .352.064.48.192a.651.651 0 01.192.48c0 .184-.064.34-.192.468a.675.675 0 01-.48.18h-4.08c-.208 0-.372-.064-.492-.192a.69.69 0 01-.18-.492c0-.2.072-.376.216-.528l2.616-2.796c.288-.312.52-.628.696-.948.176-.328.264-.632.264-.912 0-.248-.06-.472-.18-.672-.12-.2-.276-.36-.468-.48s-.4-.18-.624-.18c-.232 0-.468.08-.708.24-.24.152-.452.356-.636.612-.096.128-.192.208-.288.24a.84.84 0 01-.264.048.75.75 0 01-.492-.192.627.627 0 01-.216-.468.69.69 0 01.132-.396 3.737 3.737 0 011.404-1.128c.4-.184.784-.276 1.152-.276.544 0 1.012.112 1.404.336.392.224.696.532.912.924.216.392.324.836.324 1.332 0 .336-.064.68-.192 1.032-.12.344-.288.68-.504 1.008a7.44 7.44 0 01-.744.948l-1.62 1.728-.132-.108h2.7zm5.522 1.32a.685.685 0 01-.504-.204.74.74 0 01-.204-.528v-5.64l.252.06-2.316 2.868-.06-.156h4.068c.192 0 .352.064.48.192a.651.651 0 01.192.48c0 .184-.064.34-.192.468a.675.675 0 01-.48.18h-5.064c-.168 0-.332-.068-.492-.204a.65.65 0 01-.228-.504c0-.176.06-.336.18-.48l3.792-4.644a.633.633 0 01.252-.204.722.722 0 01.348-.084c.208 0 .376.072.504.216a.7.7 0 01.204.516v6.936a.718.718 0 01-.732.732zm4.056-3.84a1.73 1.73 0 01-1.02-.312 2.118 2.118 0 01-.696-.84 2.695 2.695 0 01-.252-1.176c0-.44.084-.836.252-1.188.168-.352.4-.632.696-.84a1.73 1.73 0 011.02-.312c.392 0 .732.104 1.02.312.296.208.524.488.684.84.168.352.252.748.252 1.188 0 .432-.088.824-.264 1.176a2.213 2.213 0 01-.708.84 1.638 1.638 0 01-.984.312zm0-1.068c.24 0 .424-.12.552-.36.136-.24.204-.54.204-.9s-.064-.66-.192-.9-.316-.36-.564-.36c-.24 0-.428.12-.564.36-.136.24-.204.54-.204.9s.064.66.192.9c.136.24.328.36.576.36zm5.148 5.028c-.368 0-.7-.104-.996-.312a2.213 2.213 0 01-.708-.84 2.593 2.593 0 01-.264-1.176c0-.44.084-.836.252-1.188.168-.352.4-.632.696-.84a1.73 1.73 0 011.02-.312c.392 0 .732.104 1.02.312.296.208.524.488.684.84.168.352.252.748.252 1.188 0 .432-.088.824-.264 1.176a2.213 2.213 0 01-.708.84 1.638 1.638 0 01-.984.312zm0-1.068c.24 0 .424-.12.552-.36.136-.24.204-.54.204-.9s-.064-.66-.192-.9-.316-.36-.564-.36c-.24 0-.428.12-.564.36-.136.24-.204.54-.204.9s.064.66.192.9c.136.24.328.36.576.36zm-5.004.972a.707.707 0 01-.408-.156.523.523 0 01-.216-.432c0-.104.04-.224.12-.36l4.776-7.212c.144-.192.308-.288.492-.288a.67.67 0 01.408.156.503.503 0 01.216.432c0 .104-.04.224-.12.36l-4.776 7.212c-.144.192-.308.288-.492.288z" fill="#fff"/><path fill-rule="evenodd" clip-rule="evenodd" d="M46.5 32.4h-43v-1.8h43v1.8zM43.64 9.367a.9.9 0 01-.007 1.272L31.765 22.396a.9.9 0 01-1.169.084l-6.451-4.775-5.784 6.669a.9.9 0 01-.578.304L7.102 25.894a.9.9 0 11-.204-1.788l10.333-1.177 6.1-7.032a.9.9 0 011.215-.134l6.5 4.811 11.32-11.213a.9.9 0 011.273.006z" fill="#fff"/><path fill-rule="evenodd" clip-rule="evenodd" d="M44 3.8H6A2.2 2.2 0 003.8 6v38A2.2 2.2 0 006 46.2h38a2.2 2.2 0 002.2-2.2V6A2.2 2.2 0 0044 3.8zM6 2a4 4 0 00-4 4v38a4 4 0 004 4h38a4 4 0 004-4V6a4 4 0 00-4-4H6z" fill="#fff"/></svg>
